svg/country-squared/gg.svg

<?xml version="1.0" encoding="UTF-8" standalone="no"?>
<svg id="svg2" xmlns:rdf="http://www.w3.org/1999/02/22-rdf-syntax-ns#" xmlns="http://www.w3.org/2000/svg" height="512" width="512" version="1.1" xmlns:cc="http://creativecommons.org/ns#" xmlns:xlink="http://www.w3.org/1999/xlink" viewBox="-18 -12 36 24" xmlns:dc="http://purl.org/dc/elements/1.1/">
 <metadata id="metadata19">
  <rdf:RDF>
   <cc:Work rdf:about="">
    <dc:format>image/svg+xml</dc:format>
    <dc:type rdf:resource="http://purl.org/dc/dcmitype/StillImage"/>
   </cc:Work>
  </rdf:RDF>
 </metadata>
 <defs id="defs17">
  <clipPath id="clipPath3845" clipPathUnits="userSpaceOnUse">
   <rect id="rect3847" fill-opacity="0.67" height="36" width="36" y="-18" x="-18"/>
  </clipPath>
 </defs>
 <g id="flag">
  <rect id="rect3003" height="36" width="36" y="-18" x="-18" fill="#fff"/>
  <g id="g3814" clip-path="url(#clipPath3845)">
   <rect id="rect4" height="24" width="36" y="-12" x="-18" fill="#fff"/>
   <path id="path6" d="m0-18v36m-18-18h36" stroke="#e8112d" stroke-width="6" fill="none"/>
   <path id="arm" fill="#f9dd16" d="m-9 2 1-1h9v-2h-9l-1-1z"/>
   <use id="use9" xlink:href="#arm" transform="rotate(90)" height="24" width="36" y="0" x="0"/>
   <use id="use11" xlink:href="#arm" transform="rotate(-90)" height="24" width="36" y="0" x="0"/>
   <use id="use13" xlink:href="#arm" transform="scale(-1)" height="24" width="36" y="0" x="0"/>
  </g>
 </g>
</svg>

<?xml version="1.0" encoding="UTF-8" standalone="no"?>
<svg
   xmlns:dc="http://purl.org/dc/elements/1.1/"
   xmlns:cc="http://creativecommons.org/ns#"
   xmlns:rdf="http://www.w3.org/1999/02/22-rdf-syntax-ns#"
   xmlns:svg="http://www.w3.org/2000/svg"
   xmlns="http://www.w3.org/2000/svg"
   xmlns:xlink="http://www.w3.org/1999/xlink"
   xmlns:sodipodi="http://sodipodi.sourceforge.net/DTD/sodipodi-0.dtd"
   xmlns:inkscape="http://www.inkscape.org/namespaces/inkscape"
   width="512"
   height="512"
   viewBox="-18 -12 36 24"
   id="svg2"
   version="1.1"
   inkscape:version="0.48.1 r9760"
   sodipodi:docname="gg.svg">
  <sodipodi:namedview
     pagecolor="#ffffff"
     bordercolor="#666666"
     borderopacity="1"
     objecttolerance="10"
     gridtolerance="10"
     guidetolerance="10"
     inkscape:pageopacity="0"
     inkscape:pageshadow="2"
     inkscape:window-width="1280"
     inkscape:window-height="723"
     id="namedview15"
     showgrid="false"
     inkscape:zoom="0.84207589"
     inkscape:cx="37.492378"
     inkscape:cy="256"
     inkscape:window-x="0"
     inkscape:window-y="24"
     inkscape:window-maximized="1"
     inkscape:current-layer="svg2" />
  <metadata
     id="metadata19">
    <rdf:RDF>
      <cc:Work
         rdf:about="">
        <dc:format>image/svg+xml</dc:format>
        <dc:type
           rdf:resource="http://purl.org/dc/dcmitype/StillImage" />
      </cc:Work>
    </rdf:RDF>
  </metadata>
  <defs
     id="defs17">
    <clipPath
       id="clipPath3845"
       clipPathUnits="userSpaceOnUse">
      <rect
         y="-18"
         width="36"
         style="fill:#000000;fill-opacity:0.67000002;stroke:none"
         x="-18"
         height="36"
         id="rect3847" />
    </clipPath>
  </defs>
  <g
     id="flag"
     inkscape:label="#g3785">
    <rect
       y="-18"
       width="36"
       style="fill:#ffffff;fill-opacity:1;stroke:none"
       x="-18"
       height="36"
       id="rect3003" />
    <g
       id="g3814"
       clip-path="url(#clipPath3845)">
      <rect
         style="fill:#ffffff"
         id="rect4"
         height="24"
         width="36"
         y="-12"
         x="-18" />
      <path
         style="fill:none;stroke:#e8112d;stroke-width:6"
         inkscape:connector-curvature="0"
         id="path6"
         d="M 0,-18 0,18 M -18,0 18,0"
         sodipodi:nodetypes="cccc" />
      <path
         style="fill:#f9dd16"
         inkscape:connector-curvature="0"
         d="M -9,2 -8,1 H 1 V -1 H -8 L -9,-2 z"
         id="arm" />
      <use
         height="24"
         width="36"
         y="0"
         x="0"
         id="use9"
         transform="matrix(0,1,-1,0,0,0)"
         xlink:href="#arm" />
      <use
         height="24"
         width="36"
         y="0"
         x="0"
         id="use11"
         transform="matrix(0,-1,1,0,0,0)"
         xlink:href="#arm" />
      <use
         height="24"
         width="36"
         y="0"
         x="0"
         id="use13"
         transform="scale(-1,-1)"
         xlink:href="#arm" />
    </g>
  </g>
</svg>
